dist/assets/img/client-1.svg

<svg width="234" height="61" viewBox="0 0 234 61" fill="none" xmlns="http://www.w3.org/2000/svg">
<g clip-path="url(#clip0_1275_502)">
<path d="M32.8445 7.63496C32.978 5.81588 33.5435 4.05573 34.4935 2.50266C34.744 2.07524 35.0221 1.70023 35.2888 1.27117C37.6729 1.79357 39.9805 2.61893 42.1581 3.73088C41.3591 4.77922 40.8295 6.01002 40.6164 7.31398C40.4017 8.73871 40.5676 10.1962 41.0929 11.539C41.6575 12.8415 42.4907 14.0082 43.5372 14.9617C44.5397 15.8837 45.6671 16.6579 46.8857 17.2609C49.2458 18.425 51.8011 19.1348 54.4201 19.3537C54.9487 19.4062 55.4805 19.4061 56.0139 19.4061C56.118 19.7271 56.2789 20.1005 56.3847 20.4755C55.3975 20.6016 54.4039 20.672 53.4086 20.69C49.6893 20.7965 45.9164 20.3167 42.4638 19.0852C39.008 17.7931 35.8206 15.7084 34.126 12.6608C33.1791 11.1653 32.7302 9.40482 32.8445 7.63496ZM51.9173 33.1408C45.8611 32.8199 39.8033 31.5376 34.2772 28.9158C31.4631 27.6337 28.8498 25.945 26.52 23.903C24.183 21.8053 22.1632 19.2932 20.9419 16.3504C19.6721 13.4104 19.2484 10.1703 19.7189 6.99956C19.9986 5.19982 20.5353 3.45084 21.3127 1.80831C17.9667 2.75717 14.8296 4.33584 12.0674 6.46078C12.0153 6.89148 11.9616 7.3713 11.9096 7.79872C11.6429 11.2868 12.3812 14.7766 14.0351 17.8537C15.6289 20.8964 18.065 23.5673 20.8264 25.7077C23.6577 27.8403 26.7691 29.567 30.0717 30.8384C36.7134 33.4585 43.9389 34.5295 51.1156 34.4755C53.1924 34.4581 55.267 34.3335 57.3311 34.1021C57.3832 33.7812 57.4385 33.4602 57.4905 33.0901C55.6374 33.2411 53.776 33.2576 51.9206 33.1392L51.9173 33.1408ZM28.9642 20.898C31.1116 22.5332 33.4716 23.8639 35.9783 24.8529C41.0279 26.8311 46.5539 27.6859 52.0409 27.5795C53.9237 27.5638 55.8041 27.4391 57.6727 27.2061C57.6844 27.062 57.6661 26.917 57.619 26.7803C57.619 26.6166 57.5669 26.4577 57.5669 26.2956C56.131 26.3496 54.6966 26.3496 53.2622 26.2956C48.9027 26.0685 44.6247 25.0163 40.6522 23.194C38.6639 22.2463 36.8076 21.04 35.131 19.6059C33.421 18.1 32.029 16.2633 31.0377 14.2051C30.0604 12.086 29.7277 9.72303 30.0815 7.41388C30.4262 5.20715 31.2979 3.11773 32.6217 1.32522C32.7144 1.18929 32.8217 1.0632 32.9421 0.950202C30.8876 0.637307 28.8039 0.565864 26.733 0.737311C25.8825 0.791353 25.0872 0.950202 24.2887 1.05665C23.2643 2.99814 22.6325 5.12496 22.4299 7.31398C22.1697 9.93417 22.6885 12.574 23.9179 14.8962C25.0336 17.2609 26.8485 19.2932 28.9642 20.898ZM51.0196 40.1073C43.2591 39.7847 35.5018 38.1798 28.3804 34.9733C24.7675 33.3809 21.403 31.2693 18.3919 28.7045C15.3622 26.1368 12.7569 23.0351 11.0574 19.3537C9.57679 16.1631 8.8881 12.658 9.05064 9.13993C4.58962 13.6852 1.76466 19.6011 1.02444 25.9481C0.284223 32.295 1.67119 38.709 4.96506 44.1714C8.25893 49.6338 13.2708 53.8313 19.2047 56.0973C25.1386 58.3633 31.6543 58.5678 37.7168 56.6783C41.7381 55.4229 45.4328 53.2849 48.5346 50.4182C51.6364 47.5516 54.0681 44.0278 55.6545 40.1007C54.1046 40.1498 52.5597 40.1482 51.0196 40.0942V40.1073ZM44.0576 4.80024C43.5869 5.65214 43.3285 6.60633 43.3046 7.58092C43.2997 8.45868 43.5632 9.31679 44.0576 10.039C45.0138 11.5358 46.7149 12.5511 48.5753 13.1406C50.091 13.5992 51.6669 13.8202 53.2492 13.7924C50.8627 10.1647 47.7276 7.09764 44.0576 4.80024Z" fill="#FDFCFB"/>
<path d="M99.4419 53.3906C97.7103 52.4918 96.2694 51.1141 95.2884 49.4193C94.2775 47.7069 93.7589 45.7452 93.7906 43.7532C93.7587 41.7619 94.2767 39.8009 95.2868 38.0887C96.2952 36.4162 97.7299 35.0461 99.4419 34.1207C101.284 33.1382 103.345 32.6387 105.431 32.6698C107.503 32.6325 109.549 33.1327 111.372 34.1224C113.093 35.0345 114.53 36.4077 115.524 38.0903C116.535 39.805 117.068 41.7623 117.068 43.7565C117.068 45.7506 116.535 47.7079 115.524 49.4226C114.516 51.0947 113.083 52.4652 111.372 53.3922C109.546 54.3764 107.502 54.8763 105.431 54.8448C103.35 54.8327 101.3 54.335 99.4419 53.3906ZM108.811 49.7092C109.804 49.1347 110.622 48.2985 111.179 47.2904C111.749 46.2009 112.047 44.988 112.047 43.7565C112.047 42.525 111.749 41.312 111.179 40.2225C110.622 39.2137 109.804 38.3764 108.811 37.8005C107.757 37.2288 106.579 36.9296 105.382 36.9296C104.185 36.9296 103.007 37.2288 101.953 37.8005C100.962 38.3771 100.145 39.2136 99.5883 40.2209C99.018 41.3106 98.72 42.5239 98.72 43.7556C98.72 44.9874 99.018 46.2007 99.5883 47.2904C100.145 48.2992 100.963 49.1365 101.956 49.7125C103.001 50.2984 104.179 50.5993 105.375 50.5853C106.577 50.6076 107.764 50.3051 108.811 49.7092ZM86.9782 7.79275C86.2545 6.63004 85.1926 5.75883 83.7891 5.12835C82.384 4.49787 80.7431 4.21456 78.8615 4.21456H69.6406V25.5183H74.5682V19.6032H78.8664C80.748 19.6032 82.3922 19.3134 83.794 18.6895C85.0936 18.1373 86.2029 17.2117 86.9831 16.0283C87.7312 14.7903 88.1182 13.3639 88.0955 11.9163C88.1261 10.461 87.7381 9.02777 86.9782 7.78948V7.79275ZM83.1646 11.9572C83.1646 13.1183 82.7792 14.0386 82.0035 14.6675C81.2294 15.2947 80.0731 15.6353 78.6241 15.6353H74.6154V8.22672H78.6241C80.1203 8.22672 81.231 8.56407 82.0035 9.19292C82.776 9.82176 83.1646 10.7437 83.1646 11.9556V11.9572ZM95.6722 4.20801H90.7967V25.5593H95.4315L105.575 11.6624V25.5593H110.453V4.20801H105.817L95.6722 18.1032V4.20801ZM129.289 20.9608H119.388L117.505 25.5593H112.434L121.948 4.20801H126.827L136.342 25.5593H131.174L129.289 20.9608ZM127.695 17.232L124.312 9.04881L120.933 17.232H127.695ZM89.1509 54.455V33.1038H84.2282V41.5277H74.5682V33.1038H69.6406V54.455H74.5682V45.6921H84.2282V54.455H89.1509ZM140.396 48.4515C140.396 47.1447 140.059 46.077 139.383 45.2074C138.608 44.2975 137.583 43.6397 136.436 43.3176C137.347 42.9278 138.121 42.2712 138.656 41.4343C139.191 40.5975 139.459 39.6166 139.43 38.6225C139.43 36.8801 138.747 35.5225 137.353 34.5547C135.961 33.5852 134.024 33.1038 131.561 33.1038H121.66V54.455H132.143C134.8 54.455 136.826 53.9228 138.277 52.8551C139.674 51.8397 140.399 50.3397 140.399 48.4499L140.396 48.4515ZM131.123 41.9158H126.537V36.6869H131.126C132.188 36.6869 132.961 36.9276 133.541 37.3714C133.811 37.6136 134.024 37.9126 134.166 38.2471C134.308 38.5816 134.375 38.9435 134.363 39.3071C134.363 40.1799 134.073 40.8071 133.541 41.2444C133.011 41.68 132.188 41.9158 131.126 41.9158H131.123ZM131.944 45.3417C134.262 45.3417 135.421 46.2145 135.421 48.0061C135.421 49.8468 134.262 50.7671 131.944 50.7655H126.535V45.3515L131.944 45.3417ZM149.236 53.3824C147.504 52.4839 146.063 51.1062 145.081 49.4112C144.071 47.6985 143.553 45.7368 143.585 43.745C143.553 41.7532 144.071 39.7915 145.081 38.0788C146.089 36.4059 147.524 35.0357 149.236 34.1109C151.081 33.1303 153.141 32.6346 155.226 32.6698C157.297 32.6321 159.343 33.1324 161.167 34.1224C162.888 35.0344 164.325 36.4076 165.32 38.0903C166.331 39.805 166.865 41.7623 166.865 43.7565C166.865 45.7506 166.331 47.708 165.32 49.4226C164.313 51.0957 162.878 52.4664 161.167 53.3922C159.341 54.377 157.297 54.8774 155.226 54.8464C153.146 54.8274 151.097 54.3288 149.238 53.3889L149.236 53.3824ZM158.612 49.7108C159.605 49.1345 160.424 48.2966 160.98 47.2872C161.549 46.1978 161.847 44.9852 161.847 43.754C161.847 42.5228 161.549 41.3102 160.98 40.2209C160.423 39.2119 159.605 38.3741 158.612 37.7972C157.558 37.2257 156.379 36.9266 155.182 36.9266C153.985 36.9266 152.806 37.2257 151.752 37.7972C150.76 38.3742 149.942 39.212 149.386 40.2209C148.816 41.3104 148.518 42.5233 148.518 43.7548C148.518 44.9863 148.816 46.1993 149.386 47.2888C149.942 48.2976 150.76 49.1349 151.752 49.7108C152.797 50.2962 153.975 50.5965 155.171 50.5821C156.374 50.6067 157.563 50.3059 158.612 49.7108ZM171.461 49.4685C172.483 51.1165 173.914 52.4682 175.613 53.3906C177.398 54.3584 179.332 54.7924 181.554 54.7924C183.272 54.8076 184.976 54.4786 186.567 53.8245C188.031 53.189 189.323 52.2097 190.334 50.9685L187.143 48.0634C185.694 49.7583 183.908 50.5755 181.781 50.5755C180.551 50.5976 179.336 50.2968 178.255 49.7027C177.249 49.1286 176.415 48.2926 175.84 47.2823C175.27 46.1926 174.972 44.9793 174.972 43.7475C174.972 42.5156 175.27 41.3023 175.84 40.2127C176.416 39.2027 177.25 38.3667 178.255 37.7923C179.336 37.1987 180.551 36.8984 181.781 36.9211C183.908 36.9211 185.694 37.7923 187.143 39.4348L190.334 36.528C189.32 35.3022 188.028 34.3396 186.567 33.7211C184.976 33.0676 183.272 32.7381 181.554 32.7517C179.332 32.7517 177.351 33.1889 175.613 34.1568C173.885 35.0362 172.443 36.3969 171.461 38.0772C170.446 39.7247 169.963 41.6145 169.963 43.7434C169.963 45.8723 170.441 47.821 171.456 49.4685H171.461ZM210.34 37.1323H203.529V54.4648H198.652V37.1225H191.884V33.1038H210.343L210.34 37.1323ZM219.083 33.1136H214.204V54.4648H218.841L228.982 40.568V54.4648H233.861V33.1038H229.224L219.083 46.999V33.1136Z" fill="#FDFCFB"/>
</g>
<defs>
<clipPath id="clip0_1275_502">
<rect width="233" height="60" fill="white" transform="translate(0.524414 0.566406)"/>
</clipPath>
</defs>
</svg>

<svg xmlns="http://www.w3.org/2000/svg" fill="none" viewBox="0 0 234 61"><g fill="#FDFCFB" clip-path="url(#clip0_1275_502)"><path d="M32.84 7.63c.14-1.81.7-3.57 1.65-5.13.25-.42.53-.8.8-1.23q3.59.79 6.87 2.46a8 8 0 0 0-1.54 3.58 8 8 0 0 0 .47 4.23c.57 1.3 1.4 2.47 2.45 3.42q1.51 1.39 3.35 2.3a21 21 0 0 0 7.53 2.1q.8.06 1.6.05c.1.32.26.7.36 1.07q-1.48.19-2.97.21c-3.72.1-7.5-.37-10.95-1.6-3.45-1.3-6.64-3.38-8.33-6.43a8.4 8.4 0 0 1-1.29-5.03m19.08 25.51a47 47 0 0 1-17.64-4.22 32 32 0 0 1-7.76-5.02 21 21 0 0 1-5.58-7.55 17 17 0 0 1-1.22-9.35q.43-2.71 1.6-5.2a27 27 0 0 0-9.25 4.66l-.16 1.34a18.3 18.3 0 0 0 2.13 10.05 25 25 0 0 0 6.79 7.86 38 38 0 0 0 9.24 5.13c6.64 2.62 13.87 3.69 21.05 3.64q3.11-.03 6.21-.38l.16-1.01q-2.78.23-5.57.05m-22.96-12.24a29 29 0 0 0 7.02 3.95 42 42 0 0 0 16.06 2.73 49 49 0 0 0 5.63-.37q.02-.23-.05-.43c0-.16-.05-.32-.05-.48q-2.16.07-4.3 0a35 35 0 0 1-12.62-3.1 25 25 0 0 1-5.52-3.6 17 17 0 0 1-4.1-5.4 12 12 0 0 1-.95-6.79 14 14 0 0 1 2.54-6.08q.15-.21.32-.38a27 27 0 0 0-6.2-.21c-.86.05-1.65.21-2.45.32a17 17 0 0 0-1.86 6.25c-.26 2.62.26 5.26 1.49 7.59a16.6 16.6 0 0 0 5.04 6m22.06 19.2a61 61 0 0 1-22.64-5.13 41 41 0 0 1-9.99-6.27 27.5 27.5 0 0 1-7.33-9.35 22 22 0 0 1-2-10.21 28.8 28.8 0 0 0-4.09 35.03 28.5 28.5 0 0 0 14.23 11.93 28.3 28.3 0 0 0 29.33-5.68 29 29 0 0 0 7.12-10.32q-2.32.07-4.63 0m-6.96-35.3q-.71 1.3-.76 2.78c0 .88.26 1.74.76 2.46.95 1.5 2.65 2.51 4.52 3.1q2.28.7 4.67.65a30 30 0 0 0-9.2-8.99m55.39 48.6a10.3 10.3 0 0 1-4.15-3.98 11 11 0 0 1-1.5-5.67c-.03-1.99.49-3.95 1.5-5.66 1-1.67 2.44-3.04 4.15-3.97 1.84-.98 3.9-1.48 6-1.45a12 12 0 0 1 5.93 1.45c1.72.91 3.16 2.29 4.15 3.97a11.2 11.2 0 0 1 0 11.33c-1 1.67-2.44 3.05-4.15 3.97a12 12 0 0 1-5.94 1.45 13.4 13.4 0 0 1-5.99-1.45m9.37-3.7q1.52-.88 2.37-2.41a7.6 7.6 0 0 0 0-7.07 6.3 6.3 0 0 0-5.8-3.29q-1.82 0-3.43.87-1.5.89-2.36 2.42a7.6 7.6 0 0 0 0 7.07 6.3 6.3 0 0 0 5.78 3.3 6.7 6.7 0 0 0 3.44-.88m-21.83-41.9a7 7 0 0 0-3.2-2.67q-2.1-.93-4.92-.92h-9.22v21.3h4.93v-5.9h4.3q2.82 0 4.92-.92a7 7 0 0 0 3.2-2.66 7.7 7.7 0 0 0 1.1-4.11 7.6 7.6 0 0 0-1.11-4.13m-3.82 4.16a3.3 3.3 0 0 1-1.16 2.7 5.3 5.3 0 0 1-3.38.98h-4v-7.41h4q2.24 0 3.38.96 1.16.94 1.16 2.77m12.51-7.75h-4.87v21.35h4.63l10.14-13.9v13.9h4.88v-21.35h-4.63l-10.15 13.9zm33.62 16.75h-9.9l-1.89 4.6h-5.07l9.52-21.35h4.88l9.51 21.35h-5.17zm-1.6-3.73-3.38-8.18-3.38 8.18zm-38.54 37.22v-21.35h-4.92v8.43h-9.66v-8.43h-4.93v21.35h4.93v-8.76h9.66v8.77zm51.25-6a5 5 0 0 0-1.02-3.24 6 6 0 0 0-2.94-1.9 4.95 4.95 0 0 0 2.99-4.69q.01-2.61-2.08-4.07-2.1-1.45-5.79-1.45h-9.9v21.35h10.48q3.98 0 6.14-1.6a5.2 5.2 0 0 0 2.12-4.4m-9.28-6.53h-4.58v-5.23h4.59c1.06 0 1.83.24 2.41.68a2.5 2.5 0 0 1 .82 1.94q-.01 1.3-.82 1.93-.8.67-2.41.68m.82 3.42q3.48-.02 3.48 2.67 0 2.76-3.48 2.76h-5.4v-5.42zm17.3 8.04a10.3 10.3 0 0 1-4.16-3.97 11 11 0 0 1-1.5-5.66c-.03-2 .5-3.96 1.5-5.67a11 11 0 0 1 4.16-3.97c1.84-.98 3.9-1.48 5.99-1.44a12 12 0 0 1 5.94 1.45c1.72.91 3.16 2.29 4.15 3.97a11.2 11.2 0 0 1 0 11.33 11 11 0 0 1-4.15 3.97 12 12 0 0 1-5.94 1.46 13.6 13.6 0 0 1-6-1.46m9.37-3.67q1.52-.89 2.37-2.42a7.6 7.6 0 0 0 0-7.07 6.4 6.4 0 0 0-5.8-3.3 6.4 6.4 0 0 0-5.8 3.3 7.6 7.6 0 0 0 0 7.07 6.3 6.3 0 0 0 5.8 3.3 6.7 6.7 0 0 0 3.43-.88m12.85-.24c1.02 1.65 2.45 3 4.15 3.92a12 12 0 0 0 5.94 1.4c1.72.02 3.43-.31 5.02-.97a10 10 0 0 0 3.76-2.85l-3.19-2.9a6.8 6.8 0 0 1-5.36 2.5 7 7 0 0 1-3.53-.87 6.5 6.5 0 0 1-2.41-2.42 7.6 7.6 0 0 1 0-7.07 6.5 6.5 0 0 1 5.94-3.29c2.13 0 3.91.87 5.36 2.51l3.2-2.9a10 10 0 0 0-3.77-2.8q-2.42-1-5.02-.98-3.33-.02-5.94 1.4a10.6 10.6 0 0 0-5.65 9.59c0 2.13.48 4.08 1.5 5.73m38.88-12.34h-6.81v17.33h-4.88v-17.34h-6.77v-4.02h18.46zm8.74-4.02h-4.88v21.35h4.64l10.14-13.9v13.9h4.88v-21.36h-4.64l-10.14 13.9z"/></g><defs><clipPath id="clip0_1275_502"><path fill="#fff" d="M.52.57h233v60h-233z"/></clipPath></defs></svg>
